icons/general-menu-3-filled.svg

<svg viewBox="0 0 24 24"><path fill="currentColor" fill-rule="evenodd" d="M18 2.4a3.6 3.6 0 0 1 3.6 3.6v12a3.6 3.6 0 0 1-3.6 3.6h-12a3.6 3.6 0 0 1-3.6-3.6v-12a3.6 3.6 0 0 1 3.6-3.6zm-12 4.6a1 1 0 0 0 0 2h12a1 1 0 1 0 0-2zm4.1 4a1 1 0 1 0 0 2h7.9a1 1 0 1 0 0-2zm-4.1 4a1 1 0 1 0 0 2h12a1 1 0 1 0 0-2z" clip-rule="evenodd"/></svg>

<svg viewBox="0 0 24 24"><path fill="currentColor" fill-rule="evenodd" d="M18 2.4A3.6 3.6 0 0 1 21.6 6v12a3.6 3.6 0 0 1-3.6 3.6H6A3.6 3.6 0 0 1 2.4 18V6A3.6 3.6 0 0 1 6 2.4zM6 7a1 1 0 0 0 0 2h12a1 1 0 1 0 0-2zm4.1 4a1 1 0 1 0 0 2H18a1 1 0 1 0 0-2zM6 15a1 1 0 1 0 0 2h12a1 1 0 1 0 0-2z" clip-rule="evenodd"/></svg>
